X:53230
F:http://www.vwml.org/record/HAM/5/32/3
%%VWML:HAM-5-32-3-0
T:Noah was a man
S:Mrs Marina Russell, Upwey coll. HED Hammond
O:England
A:Dorset
N:Transcribed from HAM-02-240.gif
F:HAM-05-32-30.abc
Z:EFDSS;PJHeadford
M:C
L:1/4
Q:2/4=50
K:G
"<("">)"D2|(G>A) GE|ED DF|G>G GA|(BA2) G|\
w:Oh, A-*bram oh!
GA Bc|(dB) GG|(GA) Bc|d2 B2|
c2 cc|e2 dB|A>G GB|(BA2) G|\
G2 FE|ED2 D|G2 A>A&xxx>B|G2||
W:Transcribed from HAM-02-240.gif Words below from HAM-01-690.gif - Hammond's field notes W:
W: Noah was a man well-beloved by the Lord
W:He was true to be found in 'great Jehovah's Word
W:He builded up the ark & he planted the first vines
W:Now his soul in heaven like an angel do shine
W:
W:Abraham was a man well-beloved by the Lord
W:He was &c
W:He stretched forth his hand, took a knife to slay his son
W:But an angel appeared & said 'the Lord's will be done
W:
W:Oh! Abram Oh! Abram lay no hand upon the lad
W:I gave him unto thee to make thy heart glad
W:Thy seed shall increase like the stars all in the sky
W:And thy soul in heaven like Gabriel shall fly
W:
W:The MIDI file HAM-05-32-30.mid has 2 verses, the 2nd using the variant in the penultimate bar.
